X:307
T: SCHATZEL WAS HO ICH DIR LEIDES GETHAN
N: Z0305
O: Europa, Mitteleuropa, Deutschland, Kuhlaendchen
R: Lyrisches Lied, Romanze, verlassene Liebe
M: 3/8
L: 1/8
K: G
 | GGG | GAc | _BAG | =F2z |
_BBB | c_Bc | dcd | _B2z |
ddd | c2c | dc_B | A2
F | G2A | _BAc | A2F | G2z

@@@ Tune index: 10065
